src/images/play.svg

<svg width="156" height="51" viewBox="0 0 156 51" xmlns="http://www.w3.org/2000/svg"><title>Play</title><path d="M16.648 13.272h6.264v9.432h-6.264v-9.432zm15.696 22.032c3.744 0 6.336-2.664 6.336-6.336V6.864C38.68 3.192 36.088.6 32.344.6H.88V51h15.768V35.304h15.696zM43.72 51h31.536V38.4h-15.84V.6H43.72V51zm51.552-22.752l1.44-14.976h1.728l1.44 14.976h-4.608zM84.472.6l-7.056 44.136V51h15.696l1.008-10.152h6.912L101.968 51h15.768v-6.264L110.68.6H84.472zm43.416 36.648V51h15.696V37.248l12.312-30.384V.6H140.2l-3.888 19.584h-1.152L131.344.6h-15.768v6.264l12.312 30.384z" fill="#FFF" fill-rule="evenodd"/></svg>

<?xml version="1.0" encoding="UTF-8" standalone="no"?>
<svg width="156px" height="51px" viewBox="0 0 156 51" version="1.1" xmlns="http://www.w3.org/2000/svg" xmlns:xlink="http://www.w3.org/1999/xlink" xmlns:sketch="http://www.bohemiancoding.com/sketch/ns">
    <!-- Generator: Sketch 3.5.1 (25234) - http://www.bohemiancoding.com/sketch -->
    <title>Play</title>
    <desc>Created with Sketch.</desc>
    <defs></defs>
    <g id="Page-1" stroke="none" stroke-width="1" fill="none" fill-rule="evenodd" sketch:type="MSPage">
        <path d="M16.648,13.272 L22.912,13.272 L22.912,22.704 L16.648,22.704 L16.648,13.272 Z M32.344,35.304 C36.088,35.304 38.68,32.64 38.68,28.968 L38.68,6.864 C38.68,3.192 36.088,0.6 32.344,0.6 L0.88,0.6 L0.88,51 L16.648,51 L16.648,35.304 L32.344,35.304 Z M43.72,51 L75.256,51 L75.256,38.4 L59.416,38.4 L59.416,0.6 L43.72,0.6 L43.72,51 Z M95.272,28.248 L96.712,13.272 L98.44,13.272 L99.88,28.248 L95.272,28.248 Z M84.472,0.6 L77.416,44.736 L77.416,51 L93.112,51 L94.12,40.848 L101.032,40.848 L101.968,51 L117.736,51 L117.736,44.736 L110.68,0.6 L84.472,0.6 Z M127.888,37.248 L127.888,51 L143.584,51 L143.584,37.248 L155.896,6.864 L155.896,0.6 L140.2,0.6 L136.312,20.184 L135.16,20.184 L131.344,0.6 L115.576,0.6 L115.576,6.864 L127.888,37.248 Z" id="Play" fill="#FFFFFF" sketch:type="MSShapeGroup"></path>
    </g>
</svg>
